img/svg/lifting.svg

<svg width="56" height="58" viewBox="0 0 56 58" fill="none" xmlns="http://www.w3.org/2000/svg">
<path d="M3.64 56.58C3.64 56.58 6.02 51.64 6.02 46.11C6.02 40.58 1 22.62 1 19.04C1 15.46 3.13 8.92 15.47 1" stroke="white" stroke-miterlimit="10"/>
<path d="M10.1299 56.58C10.1299 56.58 16.5799 48.52 16.5799 42.45C16.5799 36.38 12.8799 33.77 11.7299 30.45C10.5799 27.13 10.8399 22.09 14.5399 22.09C18.2399 22.09 18.0499 26.24 18.0499 26.24C18.0499 26.24 35.4799 22.86 43.8399 1.79004C43.8399 1.79004 49.9699 11.24 49.9699 13.79C49.9699 16.34 47.9299 17.81 47.9299 19.6C47.9299 21.39 48.5699 23.75 51.7599 26.11C54.9499 28.47 56.3599 31.41 50.7999 35.56C50.7999 35.56 50.0299 38.37 50.5399 40.16C51.0499 41.95 50.9899 43.73 50.0899 44.5C49.1899 45.27 49.6399 48.01 50.0299 48.9C50.4099 49.79 51.1199 54.26 46.0699 54.71C41.0299 55.16 27.8099 50.18 20.0899 41.56" stroke="white" stroke-miterlimit="10"/>
<path d="M29.21 56.58C29.21 56.58 30.84 56 31.56 50.28" stroke="white" stroke-miterlimit="10"/>
<path d="M44.2801 49.5301C44.2801 49.5301 26.5401 45.2501 25.8501 35.1001" stroke="white" stroke-miterlimit="10"/>
<path d="M23.6001 39.1302L25.4501 34.6602L29.2101 36.5102" stroke="white" stroke-miterlimit="10"/>
<path d="M50.2798 30.6401L47.3398 32.6201" stroke="white" stroke-miterlimit="10"/>
<path d="M50.2799 39.4502L46.8399 40.3902C46.3299 40.5302 46.1899 41.1902 46.5999 41.5202L49.8299 44.1702" stroke="white" stroke-miterlimit="10"/>
<path d="M17.7899 32.6201C17.7899 32.6201 16.7499 34.7901 14.3999 35.1101" stroke="white" stroke-miterlimit="10"/>
<path d="M33.87 3.26001C33.87 3.26001 34.89 11.05 27.49 16.15" stroke="white" stroke-miterlimit="10"/>
<path d="M27.49 1.53003C27.49 1.53003 28 9.00003 22.45 11.87" stroke="white" stroke-miterlimit="10"/>
<path d="M19.3798 12.6401C19.3798 12.6401 18.9198 13.6001 16.0898 13.7901" stroke="white" stroke-miterlimit="10"/>
</svg>

<svg width="56" height="58" fill="none" xmlns="http://www.w3.org/2000/svg"><path d="M3.64 56.58s2.38-4.94 2.38-10.47S1 22.62 1 19.04C1 15.46 3.13 8.92 15.47 1" stroke="#fff" stroke-miterlimit="10"/><path d="M10.13 56.58s6.45-8.06 6.45-14.13-3.7-8.68-4.85-12c-1.15-3.32-.89-8.36 2.81-8.36s3.51 4.15 3.51 4.15 17.43-3.38 25.79-24.45c0 0 6.13 9.45 6.13 12 0 2.55-2.04 4.02-2.04 5.81s.64 4.15 3.83 6.51c3.19 2.36 4.6 5.3-.96 9.45 0 0-.77 2.81-.26 4.6.51 1.79.45 3.57-.45 4.34s-.45 3.51-.06 4.4c.38.89 1.09 5.36-3.96 5.81-5.04.45-18.26-4.53-25.98-13.15m9.12 15.02s1.63-.58 2.35-6.3m12.72-.75S26.54 45.25 25.85 35.1" stroke="#fff" stroke-miterlimit="10"/><path d="M23.6 39.13l1.85-4.47 3.76 1.85m21.07-5.87l-2.94 1.98m2.94 6.83l-3.44.94a.65.65 0 00-.24 1.13l3.23 2.65M17.79 32.62s-1.04 2.17-3.39 2.49M33.87 3.26s1.02 7.79-6.38 12.89m0-14.62S28 9 22.45 11.87m-3.07.77s-.46.96-3.29 1.15" stroke="#fff" stroke-miterlimit="10"/></svg>
